status/symbolic/battery-full-charging-symbolic.svg

<svg enable-background="new" height="16" width="16" xmlns="http://www.w3.org/2000/svg">
  <path d="m2.5175781 4.4902344c-.2858733 0-.5175781.2325481-.5175781.5175781v5.9843755c0 .286304.2317048.517578.5175781.517578h10.0410159c.28628 0 .517578-.231704.517578-.517578v-1.0625005h.40625c.286289 0 .517578-.2304501.517578-.5175781v-2.7792969c.000446-.286285-.231291-.5195312-.517578-.5195313h-.40625v-1.1054687c0-.28503-.231275-.5175781-.517578-.5175781zm4.6621094 1.7285156h.0175781l1.1035156 2.0800781 2.9414068-1.2460937-3.1894536 2.9160156-1.1054688-2.0820312-2.9414062 1.2460937z" fill="#bebebe" stroke-width=".70935" />
</svg>

<?xml version="1.0" encoding="UTF-8" standalone="no"?>
<!-- Created with Inkscape (http://www.inkscape.org/) -->

<svg
   xmlns:dc="http://purl.org/dc/elements/1.1/"
   xmlns:cc="http://creativecommons.org/ns#"
   xmlns:rdf="http://www.w3.org/1999/02/22-rdf-syntax-ns#"
   xmlns:svg="http://www.w3.org/2000/svg"
   xmlns="http://www.w3.org/2000/svg"
   xmlns:sodipodi="http://sodipodi.sourceforge.net/DTD/sodipodi-0.dtd"
   xmlns:inkscape="http://www.inkscape.org/namespaces/inkscape"
   id="svg7384"
   style="enable-background:new"
   height="16"
   width="16"
   version="1.1"
   inkscape:version="0.92.1 r15371"
   sodipodi:docname="battery-full-charging-symbolic.svg">
  <sodipodi:namedview
     pagecolor="#a1a1a1"
     bordercolor="#666666"
     borderopacity="1"
     objecttolerance="10"
     gridtolerance="10"
     guidetolerance="10"
     inkscape:pageopacity="0"
     inkscape:pageshadow="2"
     inkscape:window-width="1600"
     inkscape:window-height="840"
     id="namedview11"
     showgrid="false"
     inkscape:zoom="29.5"
     inkscape:cx="1.181845"
     inkscape:cy="6.4946021"
     inkscape:window-x="0"
     inkscape:window-y="32"
     inkscape:window-maximized="1"
     inkscape:current-layer="svg7384"
     inkscape:pagecheckerboard="false" />
  <metadata
     id="metadata90">
    <rdf:RDF>
      <cc:Work
         rdf:about="">
        <dc:format>image/svg+xml</dc:format>
        <dc:type
           rdf:resource="http://purl.org/dc/dcmitype/StillImage" />
        <dc:title>Paper Symbolic Icon Theme</dc:title>
      </cc:Work>
    </rdf:RDF>
  </metadata>
  <title
     id="title8473">Paper Symbolic Icon Theme</title>
  <defs
     id="defs7386">
    <filter
       id="filter7554"
       style="color-interpolation-filters:sRGB">
      <feBlend
         id="feBlend7556"
         in2="BackgroundImage"
         mode="darken" />
    </filter>
  </defs>
  <g
     id="g4552">
    <path
       id="path841-6"
       d="M 12 5.328125 L 3.2050781 5.3300781 C 3.0326037 5.3300781 2.8945312 5.5313711 2.8945312 5.7832031 L 2.8945312 10.216797 C 2.8945313 10.468629 3.0326037 10.669928 3.2050781 10.669922 L 12 10.669922 L 12 5.328125 z M 7.1796875 6.21875 L 7.1972656 6.21875 L 8.3007812 8.2988281 L 11.242188 7.0527344 L 8.0527344 9.96875 L 6.9472656 7.8867188 L 4.0058594 9.1328125 L 7.1796875 6.21875 z "
       style="fill:#bebebe;fill-opacity:0.66666667;stroke-width:0.70935035;enable-background:new" />
    <g
       id="g3-9-36"
       transform="matrix(0.00985356,0,0,0.00985356,-14.818847,18.83862)"
       style="fill:#ffffff;fill-opacity:1;enable-background:new">
      <g
         id="g5-4-7"
         style="fill:#ffffff;fill-opacity:1" />
    </g>
    <g
       id="g3-9-3"
       transform="matrix(0.00985356,0,0,0.00985356,17.627325,18.401278)"
       style="fill:#ffffff;fill-opacity:1;enable-background:new">
      <g
         id="g5-4-6"
         style="fill:#ffffff;fill-opacity:1" />
    </g>
    <path
       id="path854-3"
       d="M 2.5175781,4.489469 C 2.2317048,4.489469 2,4.722017 2,5.007047 v 5.984376 C 2,11.277728 2.2317048,11.509 2.5175781,11.509 H 12.558595 c 0.28628,0 0.517578,-0.231702 0.517578,-0.517577 V 9.928922 h 0.40625 c 0.286289,0 0.517579,-0.23045 0.517579,-0.517578 V 6.632047 C 14.000448,6.345762 13.76871,6.112516 13.482423,6.112516 h -0.40625 V 5.007047 c 0,-0.28503 -0.231275,-0.517578 -0.517578,-0.517578 z M 3.347656,5.329312 h 8.109376 c 0.251831,0 0.457033,0.201294 0.457032,0.453125 v 4.433595 c 0,0.251829 -0.205201,0.453125 -0.457032,0.453125 H 3.347656 c -0.2518311,0 -0.4531242,-0.201296 -0.4531251,-0.453125 V 5.782437 c 0,-0.251831 0.201294,-0.453125 0.4531251,-0.453125 z"
       style="fill:#bebebe;fill-opacity:1;stroke-width:0.85714281;enable-background:new"
       inkscape:connector-curvature="0" />
  </g>
</svg>
